!!!SOCIAL_FUNCTION:	songs with hunting dance
!!!PDT:	1956
!!!OTL: No_57_Calusa_Hunting_Dance_Song_(a).krn
!!!LANG: Non-Tone
!!!LING_GROUP: Muskogean
!!!REG: Florida
**kern
*staff1
=1-
*clefF4
*k[b-e-a-]
*M3/4
4.B-\
8E-\
4B-\
=2||
*M2/4
4.B-\
8E-\
=3||
*M3/4
4B-\
4r
8B-\L
8B-\J
=4||
*M2/4
2c\
=5
4B-\
4G\
=6
2G\
=7
2B-\
=8
16B-\LK
8.G\J
16B-\LK
8.G\J
=9
2F\
=10
4E-\
8BB-/L
8C/J
=11
2BB-/
=12||
*M3/4
2G\
8G;\L
8E-;\J
=13||
*M2/4
2E-\
=14
4G\
8E-\L
8E-\J
=15||
*M3/4
2.E-\
=16||
*M2/4
4.E-\
8BB-/
=17
4.BB-/
8E-\
=18
2E-\
=19
2E-\
=20||
*M3/4
2G\
16G\LK
8.F\J
=21
[2G\
8G\L]
8F\J
=22
8.G\L
16E-\Jk
2E-\
=23||
*M2/4
2E-\
=24||
*M3/4
4G\
4.E-\
8D\
=25
[2E-\
8E-\L]
8D\J
=26||
*M2/4
2E-\
=27
4.BB-/
8D\
=28
2E-\
=29
2E-\
==
*-
